;MINX:-8.0
;MAXX:100.5
;MINY:2.0
;MAXY:108.0
;MINZ:0.0
;MAXZ:31.3
;MachineType:ENTINA TINA2S
;FilamentType:PLA
;Extruder0Temperature:200
;BedTemperature:50
;InfillDensity:10
;FLAVOR:Marlin
;TIME:18985
;FilamentUsed:14848.2
;Layer height: 0.2

;Generated with Cura_SteamEngine 4.10
M82 ;absolute extrusion mode
;(**** start.gcode for tina2s****)
M203 Z15
M104 S150
G28 Z
G28 X Y; Home extruder
G1 X55 Y55 F1000
G29
M107 ; Turn off fan
G90 ; Absolute positioning
M82 ; Extruder in absolute mode
M109 S215
G92 E0 ; Reset extruder position
G1 X90 Y3 Z0.27 F2000
G1 X20 Y3 Z0.27 E15 F1000
G92 E0 ; Reset extruder position
M203 Z5

M140 S50
M104 S215
G92 E0
G92 E0
G1 F1680 E-3
;LAYER_COUNT:150
;LAYER:-6
M107
G0 F3900 X16.679 Y10.011 Z0.35
;TYPE:SUPPORT-INTERFACE
G1 F1680 E0
G1 F1200 X17.029 Y9.408 E0.08116
G1 X17.334 Y8.926 E0.14756
G1 X17.701 Y8.399 E0.22232
G1 X18.089 Y7.891 E0.29673
G1 X18.458 Y7.447 E0.36394
G1 X18.823 Y7.04 E0.42758
G1 X19.298 Y6.555 E0.50661
G1 X19.753 Y6.129 E0.57917
G1 X20.269 Y5.688 E0.65818
G1 X20.83 Y5.252 E0.74089
G1 X21.246 Y4.956 E0.80033
G1 X21.765 Y4.618 E0.87243
G1 X22.338 Y4.276 E0.95011
G1 X22.934 Y3.958 E1.02875
G1 X23.567 Y3.658 E1.11029
G1 X24.031 Y3.463 E1.16888
G1 X24.59 Y3.25 E1.23852
G1 X25.083 Y3.083 E1.29911
G1 X25.592 Y2.931 E1.36095
G1 X26.169 Y2.785 E1.43024
G1 X26.836 Y2.645 E1.50957
G1 X27.284 Y2.572 E1.56241
G1 X27.934 Y2.493 E1.63864
G1 X28.026 Y2.484 E1.6494
G1 X28.923 Y2.42 E1.75408
G1 X29.491 Y2.4 E1.82025
G1 X85.722 Y2.401 E8.36612
G1 X86.322 Y2.422 E8.43601
G1 X86.984 Y2.474 E8.51331
G1 X87.518 Y2.538 E8.57592
G1 X88.018 Y2.617 E8.63485
G1 X88.719 Y2.758 E8.71809
G1 X89.255 Y2.89 E8.78235
G1 X89.755 Y3.032 E8.84285
G1 X90.375 Y3.237 E8.91887
G1 X90.878 Y3.425 E8.98138
G1 X91.464 Y3.673 E9.05546
G1 X92.035 Y3.943 E9.12898
G1 X92.651 Y4.27 E9.21017
G1 X93.13 Y4.551 E9.27482
G1 X93.59 Y4.845 E9.33837
G1 X94.135 Y5.226 E9.41578
G1 X94.583 Y5.569 E9.48146
G1 X95.066 Y5.969 E9.55446
G1 X95.46 Y6.323 E9.61612
G1 X95.938 Y6.791 E9.694
G1 X96.371 Y7.253 E9.76771
G1 X96.813 Y7.769 E9.8468
G1 X97.248 Y8.33 E9.92944
G1 X97.544 Y8.746 E9.98887
G1 X97.882 Y9.265 E10.06097
G1 X98.235 Y9.858 E10.14131
G1 X98.542 Y10.434 E10.21729
G1 X98.842 Y11.066 E10.29873
G1 X99.055 Y11.575 E10.36296
G1 X99.269 Y12.142 E10.43351
G1 X99.452 Y12.696 E10.50143
G1 X99.618 Y13.277 E10.57177
G1 X99.762 Y13.876 E10.64349
G1 X99.912 Y14.663 E10.73675
G1 X100.007 Y15.429 E10.82661
G1 X100.017 Y15.541 E10.8397
G1 X100.081 Y16.438 E10.94438
G1 X100.1 Y16.975 E11.00693
G1 X100.1 Y93.178 E19.87776
G1 X100.08 Y93.793 E19.94939
G1 X100.049 Y94.233 E20.00074
G1 X99.997 Y94.741 E20.06018
G1 X99.919 Y95.297 E20.12554
G1 X99.813 Y95.887 E20.19532
G1 X99.694 Y96.424 E20.25935
G1 X99.56 Y96.936 E20.32096
G1 X99.404 Y97.457 E20.38427
G1 X99.19 Y98.075 E20.46041
G1 X98.996 Y98.574 E20.52273
G1 X98.691 Y99.26 E20.61013
G1 X98.459 Y99.728 E20.67093
G1 X98.206 Y100.196 E20.73286
G1 X97.926 Y100.666 E20.79655
G1 X97.654 Y101.092 E20.85539
G1 X97.299 Y101.601 E20.92763
G1 X96.911 Y102.109 E21.00204
G1 X96.543 Y102.552 E21.06908
G1 X96.177 Y102.96 E21.13289
G1 X95.73 Y103.417 E21.2073
G1 X95.264 Y103.856 E21.28183
G1 X94.731 Y104.313 E21.36356
G1 X94.336 Y104.623 E21.42202
G1 X93.754 Y105.044 E21.50563
G1 X93.243 Y105.377 E21.57664
G1 X92.662 Y105.724 E21.65542
G1 X92.066 Y106.042 E21.73405
G1 X91.589 Y106.271 E21.79565
G1 X91.124 Y106.474 E21.85471
G1 X90.564 Y106.694 E21.92475
G1 X89.978 Y106.897 E21.99695
G1 X89.398 Y107.071 E22.06744
G1 X88.809 Y107.22 E22.13816
G1 X88.186 Y107.35 E22.21225
G1 X87.737 Y107.426 E22.26526
G1 X87.056 Y107.508 E22.34511
G1 X86.983 Y107.515 E22.35365
G1 X86.077 Y107.58 E22.45939
G1 X85.509 Y107.6 E22.52555
G1 X29.452 Y107.599 E29.05117
G1 X28.877 Y107.578 E29.11815
G1 X28.023 Y107.516 E29.21783
G1 X27.924 Y107.507 E29.2294
G1 X27.289 Y107.429 E29.30387
G1 X26.445 Y107.277 E29.40371
G1 X25.83 Y107.132 E29.47726
G1 X25.311 Y106.987 E29.53999
G1 X24.821 Y106.831 E29.59985
G1 X24.285 Y106.637 E29.66621
G1 X23.813 Y106.448 E29.7254
G1 X23.284 Y106.212 E29.79283
G1 X22.765 Y105.955 E29.86025
G1 X22.207 Y105.65 E29.93428
G1 X21.7 Y105.343 E30.00327
G1 X21.272 Y105.062 E30.06288
G1 X20.835 Y104.752 E30.12525
G1 X20.277 Y104.319 E30.20747
G1 X19.768 Y103.884 E30.28541
G1 X19.287 Y103.435 E30.36201
G1 X18.859 Y102.998 E30.43321
G1 X18.478 Y102.576 E30.4994
G1 X18.111 Y102.136 E30.5661
G1 X17.771 Y101.697 E30.63074
G1 X17.439 Y101.23 E30.69744
G1 X17.13 Y100.757 E30.76321
G1 X16.764 Y100.141 E30.84662
G1 X16.514 Y99.676 E30.90808
G1 X16.188 Y98.999 E30.99555
G1 X15.922 Y98.372 E31.07484
G1 X15.732 Y97.861 E31.1383
G1 X15.54 Y97.278 E31.20975
G1 X15.397 Y96.784 E31.26962
G1 X15.257 Y96.213 E31.33806
G1 X15.121 Y95.533 E31.41879
G1 X15.036 Y95.003 E31.48127
G1 X14.973 Y94.464 E31.54444
G1 X14.927 Y93.916 E31.60846
G1 X14.9 Y93.185 E31.69362
G1 X14.9 Y74.208 E33.90274
G1 X14.858 Y73.54 E33.98065
G1 X14.729 Y72.869 E34.0602
G1 X14.516 Y72.22 E34.13971
G1 X14.224 Y71.603 E34.21917
G1 X13.856 Y71.028 E34.29864
G1 X13.418 Y70.504 E34.37815
G1 X12.916 Y70.038 E34.45788
G1 X12.257 Y69.577 E34.5515
G1 X11.794 Y69.305 E34.61401
G1 X11.595 Y69.174 E34.64175
G1 X11.183 Y68.871 E34.70128
G1 X10.612 Y68.374 E34.78941
G1 X10.435 Y68.195 E34.81871
G1 X9.876 Y67.558 E34.91737
G1 X9.551 Y67.153 E34.97782
G1 X9.216 Y66.683 E35.04501
G1 X9.08 Y66.471 E35.07433
G1 X8.818 Y66.014 E35.13565
G1 X8.513 Y65.358 E35.21987
G1 X8.413 Y65.096 E35.25251
G1 X8.172 Y64.334 E35.34555
G1 X8.127 Y64.147 E35.36794
G1 X8.004 Y63.504 E35.44415
G1 X7.968 Y63.226 E35.47678
G1 X7.905 Y62.312 E35.58343
G1 X7.9 Y62.162 E35.6009
G1 X7.9 Y61.321 E35.6988
G1 X7.863 Y60.729 E35.76785
G1 X7.875 Y60.727 E35.76927
G1 X7.741 Y59.98 E35.85761
G1 X7.672 Y59.442 E35.92076
G1 X7.656 Y59.23 E35.94551
G1 X7.639 Y58.64 E36.01422
G1 X7.647 Y58.077 E36.07976
G1 X7.674 Y57.473 E36.15014
G1 X7.713 Y56.829 E36.22525
G1 X7.774 Y56.364 E36.27984
G1 X7.879 Y55.615 E36.36789
G1 X7.9 Y54.971 E36.4429
G1 X7.859 Y54.319 E36.51895
G1 X7.718 Y53.426 E36.62419
G1 X7.696 Y53.208 E36.6497
G1 X7.659 Y52.418 E36.74176
G1 X7.665 Y51.852 E36.80765
G1 X7.685 Y51.128 E36.89197
G1 X7.693 Y50.993 E36.90771
G1 X7.797 Y49.965 E37.02799
G1 X7.895 Y49.274 E37.10923
G1 X7.867 Y49.274 E37.11249
G1 X7.9 Y48.905 E37.15562
G1 X7.901 Y47.831 E37.28065
G1 X7.905 Y47.688 E37.2973
G1 X7.934 Y47.097 E37.36618
G1 X7.961 Y46.849 E37.39522
G1 X8.083 Y46.101 E37.48345
G1 X8.21 Y45.595 E37.54418
G1 X8.353 Y45.1 E37.60416
G1 X8.515 Y44.64 E37.66093
G1 X8.712 Y44.177 E37.7195
G1 X8.811 Y43.97 E37.74621
G1 X9.083 Y43.475 E37.81196
G1 X9.187 Y43.306 E37.83506
G1 X9.479 Y42.88 E37.89519
G1 X9.964 Y42.286 E37.98446
G1 X10.136 Y42.101 E38.01386
G1 X10.533 Y41.718 E38.07808
G1 X10.987 Y41.336 E38.14715
G1 X11.347 Y41.051 E38.2006
G1 X11.817 Y40.716 E38.26779
G1 X12.203 Y40.48 E38.32045
G1 X12.761 Y40.11 E38.39839
G1 X13.278 Y39.664 E38.47788
G1 X13.735 Y39.157 E38.55734
G1 X14.124 Y38.595 E38.6369
G1 X14.44 Y37.99 E38.71636
G1 X14.675 Y37.349 E38.79583
G1 X14.829 Y36.681 E38.87564
G1 X14.9 Y35.821 E38.97609
G1 X14.9 Y16.822 E41.18777
G1 X14.923 Y16.163 E41.26453
G1 X14.97 Y15.559 E41.33506
G1 X15.034 Y15.011 E41.39928
G1 X15.116 Y14.493 E41.46034
G1 X15.22 Y13.95 E41.5247
G1 X15.335 Y13.457 E41.58363
G1 X15.484 Y12.905 E41.65018
G1 X15.732 Y12.141 E41.74369
G1 X15.931 Y11.607 E41.81003
G1 X16.135 Y11.122 E41.87128
G1 X16.364 Y10.625 E41.93498
G1 X16.679 Y10.011 E42.01532
G1 F1680 E39.01532
G0 F3900 X16 Y11.442
G1 F1680 E42.01532
G1 F1200 X16 Y98.555 E52.15618
G1 F1680 E49.15618
G0 F3900 X17.6 Y101.456
G1 F1680 E52.15618
G1 F1200 X17.6 Y8.544 E62.97211
G1 F1680 E59.97211
G0 F3900 X19.2 Y6.655
G1 F1680 E62.97211
G1 F1200 X19.2 Y103.346 E74.22796
G1 F1680 E71.22796
G0 F3900 X20.8 Y104.724
G1 F1680 E74.22796
G1 F1200 X20.8 Y5.275 E85.80486
G1 F1680 E82.80486
G0 F3900 X22.4 Y4.242
G1 F1680 E85.80486
G1 F1200 X22.4 Y105.755 E97.62204
G1 F1680 E94.62204
G0 F3900 X24 Y106.522
G1 F1680 E97.62204
G1 F1200 X24 Y3.476 E109.61767
G1 F1680 E106.61767
G0 F3900 X25.6 Y2.928
G1 F1680 E109.61767
G1 F1200 X25.6 Y107.067 E121.74054
G1 F1680 E118.74054
G0 F3900 X27.2 Y107.412
G1 F1680 E121.74054
G1 F1200 X27.2 Y2.585 E133.9435
G1 F1680 E130.9435
G0 F3900 X28.8 Y2.428
G1 F1680 E133.9435
G1 F1200 X28.8 Y107.572 E146.18336
G1 F1680 E143.18336
G0 F3900 X30.4 Y107.599
G1 F1680 E146.18336
G1 F1200 X30.4 Y2.401 E158.42951
G1 F1680 E155.42951
G0 F3900 X32 Y2.401
G1 F1680 E158.42951
G1 F1200 X32 Y107.599 E170.67566
G1 F1680 E167.67566
G0 F3900 X33.6 Y107.599
G1 F1680 E170.67566
G1 F1200 X33.6 Y2.401 E182.92181
G1 F1680 E179.92181
G0 F3900 X35.2 Y2.401
G1 F1680 E182.92181
G1 F1200 X35.2 Y107.599 E195.16796
G1 F1680 E192.16796
G0 F3900 X36.8 Y107.599
G1 F1680 E195.16796
G1 F1200 X36.8 Y2.401 E207.41411
G1 F1680 E204.41411
G0 F3900 X38.4 Y2.401
G1 F1680 E207.41411
G1 F1200 X38.4 Y107.599 E219.66026
G1 F1680 E216.66026
G0 F3900 X40 Y107.599
G1 F1680 E219.66026
G1 F1200 X40 Y2.401 E231.90641
G1 F1680 E228.90641
G0 F3900 X41.6 Y2.401
G1 F1680 E231.90641
G1 F1200 X41.6 Y107.599 E244.15256
G1 F1680 E241.15256
G0 F3900 X43.2 Y107.599
G1 F1680 E244.15256
G1 F1200 X43.2 Y2.401 E256.3987
G1 F1680 E253.3987
G0 F3900 X44.8 Y2.401
G1 F1680 E256.3987
G1 F1200 X44.8 Y107.599 E268.64485
G1 F1680 E265.64485
G0 F3900 X46.4 Y107.599
G1 F1680 E268.64485
G1 F1200 X46.4 Y2.401 E280.891
G1 F1680 E277.891
G0 F3900 X48 Y2.401
G1 F1680 E280.891
G1 F1200 X48 Y107.599 E293.13715
G1 F1680 E290.13715
G0 F3900 X49.6 Y107.599
G1 F1680 E293.13715
G1 F1200 X49.6 Y2.401 E305.3833
G1 F1680 E302.3833
G0 F3900 X51.2 Y2.401
G1 F1680 E305.3833
G1 F1200 X51.2 Y107.599 E317.62945
G1 F1680 E314.62945
G0 F3900 X52.8 Y107.599
G1 F1680 E317.62945
G1 F1200 X52.8 Y2.401 E329.8756
G1 F1680 E326.8756
G0 F3900 X54.4 Y2.401
G1 F1680 E329.8756
G1 F1200 X54.4 Y107.599 E342.12175
G1 F1680 E339.12175
G0 F3900 X56 Y107.599
G1 F1680 E342.12175
G1 F1200 X56 Y2.401 E354.3679
G1 F1680 E351.3679
G0 F3900 X57.6 Y2.401
G1 F1680 E354.3679
G1 F1200 X57.6 Y107.599 E366.61405
G1 F1680 E363.61405
G0 F3900 X59.2 Y107.599
G1 F1680 E366.61405
G1 F1200 X59.2 Y2.401 E378.86019
G1 F1680 E375.86019
G0 F3900 X60.8 Y2.401
G1 F1680 E378.86019
G1 F1200 X60.8 Y107.599 E391.10634
G1 F1680 E388.10634
G0 F3900 X62.4 Y107.599
G1 F1680 E391.10634
G1 F1200 X62.4 Y2.401 E403.35249
G1 F1680 E400.35249
G0 F3900 X64 Y2.401
G1 F1680 E403.35249
G1 F1200 X64 Y107.599 E415.59864
G1 F1680 E412.59864
G0 F3900 X65.6 Y107.599
G1 F1680 E415.59864
G1 F1200 X65.6 Y2.401 E427.84479
G1 F1680 E424.84479
G0 F3900 X67.2 Y2.401
G1 F1680 E427.84479
G1 F1200 X67.2 Y107.599 E440.09094
G1 F1680 E437.09094
G0 F3900 X68.8 Y107.599
G1 F1680 E440.09094
G1 F1200 X68.8 Y2.401 E452.33709
G1 F1680 E449.33709
G0 F3900 X70.4 Y2.401
G1 F1680 E452.33709
G1 F1200 X70.4 Y107.599 E464.58324
G1 F1680 E461.58324
G0 F3900 X72 Y107.599
G1 F1680 E464.58324
G1 F1200 X72 Y2.401 E476.82939
G1 F1680 E473.82939
G0 F3900 X73.6 Y2.401
G1 F1680 E476.82939
G1 F1200 X73.6 Y107.599 E489.07553
G1 F1680 E486.07553
G0 F3900 X75.2 Y107.599
G1 F1680 E489.07553
G1 F1200 X75.2 Y2.401 E501.32168
G1 F1680 E498.32168
G0 F3900 X76.8 Y2.401
G1 F1680 E501.32168
G1 F1200 X76.8 Y107.599 E513.56783
G1 F1680 E510.56783
G0 F3900 X78.4 Y107.599
G1 F1680 E513.56783
G1 F1200 X78.4 Y2.401 E525.81398
G1 F1680 E522.81398
G0 F3900 X80 Y2.401
G1 F1680 E525.81398
G1 F1200 X80 Y107.599 E538.06013
G1 F1680 E535.06013
G0 F3900 X81.6 Y107.599
G1 F1680 E538.06013
G1 F1200 X81.6 Y2.401 E550.30628
G1 F1680 E547.30628
G0 F3900 X83.2 Y2.401
G1 F1680 E550.30628
G1 F1200 X83.2 Y107.599 E562.55243
G1 F1680 E559.55243
G0 F3900 X84.8 Y107.599
G1 F1680 E562.55243
G1 F1200 X84.8 Y2.401 E574.79858
G1 F1680 E571.79858
G0 F3900 X86.4 Y2.429
G1 F1680 E574.79858
G1 F1200 X86.4 Y107.557 E587.03658
G1 F1680 E584.03658
G0 F3900 X88 Y107.382
G1 F1680 E587.03658
G1 F1200 X88 Y2.615 E599.23255
G1 F1680 E596.23255
G0 F3900 X89.6 Y2.988
G1 F1680 E599.23255
G1 F1200 X89.6 Y107.011 E611.34192
G1 F1680 E608.34192
G0 F3900 X91.2 Y106.441
G1 F1680 E611.34192
G1 F1200 X91.2 Y3.562 E623.31811
G1 F1680 E620.31811
G0 F3900 X92.8 Y4.358
G1 F1680 E623.31811
G1 F1200 X92.8 Y105.642 E635.10863
G1 F1680 E632.10863
G0 F3900 X94.4 Y104.573
G1 F1680 E635.10863
G1 F1200 X94.4 Y5.429 E646.65003
G1 F1680 E643.65003
G0 F3900 X96 Y6.858
G1 F1680 E646.65003
G1 F1200 X96 Y103.141 E657.85838
G1 F1680 E654.85838
G0 F3900 X97.6 Y101.17
G1 F1680 E657.85838
G1 F1200 X97.6 Y8.832 E668.60749
G1 F1680 E665.60749
G0 F3900 X99.2 Y11.96
G1 F1680 E668.60749
G1 F1200 X99.2 Y98.047 E678.62892
G1 F1680 E675.62892
G0 F3900 X14.4 Y71.974
G1 F1680 E678.62892
G1 F1200 X14.4 Y38.066 E682.57616
G1 F1680 E679.57616
G0 F3900 X12.8 Y40.076
G1 F1680 E682.57616
G1 F1200 X12.8 Y69.956 E686.05451
G1 F1680 E683.05451
G0 F3900 X11.2 Y68.883
G1 F1680 E686.05451
G1 F1200 X11.2 Y41.167 E689.28094
G1 F1680 E686.28094
G0 F3900 X9.6 Y42.731
M104 S200
G1 F1680 E689.28094
G1 F1200 X9.6 Y67.214 E692.13102
G1 F1680 E689.13102
G0 F3900 X8 Y63.473
G1 F1680 E692.13102
G1 F1200 X8 Y46.609 E694.09417
G1 F1680 E691.09417
G0 F3900 X8.792 Y66.067
;TIME_ELAPSED:349.053521
;LAYER:-5
G0 X8.792 Y66.067 Z0.62
;TYPE:SUPPORT
G1 F1680 E694.09417
G1 F1980 X12.605 Y69.881 E694.51794
G1 X12.229 Y69.618 E694.554
G1 X11.752 Y69.337 E694.5975
G1 X11.573 Y69.22 E694.6143
G1 X11.144 Y68.904 E694.65617
G1 X10.96 Y68.754 E694.67482
G1 X10.579 Y68.41 E694.71516
G1 X10.39 Y68.218 E694.73633
G1 X9.837 Y67.59 E694.80208
G1 X9.548 Y67.229 E694.83841
G1 X9.512 Y67.182 E694.84307
G1 X9.174 Y66.709 E694.88875
G1 X9.038 Y66.497 E694.90854
G1 F1680 E691.90854
G0 F3900 X12.884 Y70.076
G1 F1680 E694.90854
G1 F1980 X13.38 Y70.537 E694.96175
G1 X13.815 Y71.057 E695.01502
G1 X13.875 Y71.151 E695.02378
G1 X14.179 Y71.626 E695.0681
G1 X14.47 Y72.238 E695.12134
G1 X14.68 Y72.88 E695.17442
G1 X14.762 Y73.311 E695.2089
G1 X49.1 Y107.648 E699.02464
G1 X47.827 Y107.648 E699.12467
G1 X14.849 Y74.671 E702.78929
G1 X14.849 Y75.943 E702.88924
G1 X46.554 Y107.648 E706.41245
G1 X45.281 Y107.648 E706.51248
G1 X14.849 Y77.216 E709.89422
G1 X14.849 Y78.489 E709.99425
G1 X44.008 Y107.648 E713.23454
G1 X42.736 Y107.648 E713.33449
G1 X14.849 Y79.762 E716.43337
G1 X14.849 Y81.035 E716.5334
G1 X41.463 Y107.648 E719.49082
G1 X40.19 Y107.648 E719.59085
G1 X14.849 Y82.307 E722.40686
G1 X14.849 Y83.58 E722.50689
G1 X38.917 Y107.648 E725.18144
G1 X37.644 Y107.648 E725.28147
G1 X14.849 Y84.853 E727.81456
G1 X14.849 Y86.126 E727.91458
G1 X36.372 Y107.648 E730.30627
G1 X35.099 Y107.648 E730.4063
G1 X14.849 Y87.399 E732.65652
G1 X14.849 Y88.671 E732.75647
G1 X33.826 Y107.648 E734.86528
G1 X32.553 Y107.648 E734.96531
G1 X14.849 Y89.944 E736.93266
G1 X14.849 Y91.217 E737.03269
G1 X31.28 Y107.648 E738.85858
G1 X30.008 Y107.648 E738.95853
G1 X14.849 Y92.49 E740.64302
G1 X14.849 Y93.184 E740.69755
G1 X14.854 Y93.439 E740.71759
G1 X14.867 Y93.78 E740.7444
G1 X28.701 Y107.614 E742.2817
G1 X28.019 Y107.565 E742.33543
G1 X27.915 Y107.555 E742.34364
G1 X27.293 Y107.479 E742.39288
G1 X15.014 Y95.2 E743.75738
G1 X15.07 Y95.542 E743.78461
G1 X15.137 Y95.895 E743.81284
G1 X15.204 Y96.206 E743.83784
G1 X15.277 Y96.517 E743.86294
G1 X15.353 Y96.812 E743.88688
G1 X25.685 Y107.144 E745.03502
G1 X25.544 Y107.106 E745.0465
G1 X25.177 Y106.997 E745.07658
G1 X25.006 Y106.944 E745.09065
G1 X24.776 Y106.867 E745.10971
G1 X24.413 Y106.739 E745.13995
G1 X24.18 Y106.65 E745.15955
G1 X23.794 Y106.493 E745.19229
G1 X23.736 Y106.467 E745.19729
G1 X16.031 Y98.763 E746.05345
G1 X16.137 Y99.009 E746.0745
G1 X16.266 Y99.286 E746.09851
G1 X16.45 Y99.661 E746.13133
G1 X16.569 Y99.889 E746.15154
G1 X16.715 Y100.153 E746.17524
G1 X16.933 Y100.531 E746.20953
G1 X17.087 Y100.783 E746.23274
G1 X17.244 Y101.028 E746.2556
G1 X17.359 Y101.201 E746.27193
G1 X17.521 Y101.436 E746.29435
G1 X17.73 Y101.726 E746.32244
G1 X17.756 Y101.761 E746.32587
G1 X20.73 Y104.734 E746.6563
G1 X20.618 Y104.652 E746.6672
G1 X20.417 Y104.494 E746.68729
G1 X20.184 Y104.307 E746.71077
G1 X19.885 Y104.053 E746.7416
G1 X19.734 Y103.921 E746.75736
G1 X19.571 Y103.772 E746.77471
G1 X19.246 Y103.465 E746.80984
